packages/core/src/svgs/tokens/mono/APOLLO.svg

<svg width="24" height="24" viewBox="0 0 24 24" fill="none" xmlns="http://www.w3.org/2000/svg">
<path fill-rule="evenodd" clip-rule="evenodd" d="M21.3346 15.5942C19.8908 19.3412 16.2559 21.9999 11.9999 21.9999C11.9501 21.9999 11.9002 21.9996 11.8505 21.9989L15.0124 14.7561C16.9855 15.6721 19.1911 15.9643 21.3346 15.5942ZM21.4046 15.4068C21.4626 15.2438 21.5189 15.0797 21.5686 14.9125C20.9 15.05 20.2124 15.1249 19.5 15.1249C17.9874 15.1249 16.5499 14.7875 15.2625 14.1874L19.2312 5.09371L18.9062 4.76871L10.1562 8.6937C9.36358 6.61889 9.28425 4.33925 9.93058 2.21437C10.5983 2.07388 11.2905 2 11.9999 2C17.5228 2 22 6.47714 22 12C22 13.1963 21.7899 14.3436 21.4046 15.4068ZM9.23102 2.38832C5.05508 3.58916 2 7.43779 2 12C2 12.3277 2.01576 12.6517 2.04658 12.9714C2.02901 12.7608 2.01212 12.5551 2.00624 12.3437L9.58117 8.94994C8.77238 6.85505 8.64974 4.5574 9.23102 2.38832ZM2.05059 13.0121C2.29046 15.3984 3.36922 17.5371 4.98756 19.1292C4.89402 19.0359 4.80231 18.9406 4.71249 18.8437L11.4749 12.0874C10.8047 11.3169 10.2491 10.4539 9.825 9.52495L2.05059 13.0121ZM5.15746 19.2924C6.7615 20.7981 8.86249 21.7806 11.188 21.9674L14.4499 14.475C13.5055 13.9637 12.6437 13.3125 11.8938 12.5437L5.15746 19.2924ZM17.925 6.51245L14.7062 13.8999C13.8249 13.4187 13.025 12.8125 12.3374 12.1062L17.925 6.51245ZM17.4561 6.1062L11.9124 11.6438C11.2967 10.9277 10.7853 10.1281 10.3937 9.26872L17.4561 6.1062Z" fill="white"/>
</svg>

<svg xmlns="http://www.w3.org/2000/svg" width="24" height="24" fill="none" viewBox="0 0 24 24">
    <path fill="#fff" fill-rule="evenodd" d="M21.335 15.594A10 10 0 0 1 11.85 22l3.161-7.243a10.7 10.7 0 0 0 6.323.838m.07-.187q.088-.244.164-.495a10.2 10.2 0 0 1-2.069.213 10 10 0 0 1-4.238-.938l3.97-9.093-.326-.325-8.75 3.925a10 10 0 0 1-.225-6.48Q10.934 2.002 12 2c5.523 0 10 4.477 10 10a10 10 0 0 1-.595 3.407M9.23 2.388C5.055 3.59 2 7.438 2 12a10 10 0 0 0 .006.344L9.581 8.95a10.6 10.6 0 0 1-.35-6.562m-7.18 10.624a9.97 9.97 0 0 0 2.937 6.117 10 10 0 0 1-.276-.285l6.763-6.757a10.6 10.6 0 0 1-1.65-2.562zm3.106 6.28a9.96 9.96 0 0 0 6.031 2.675l3.262-7.492a10.7 10.7 0 0 1-2.556-1.931zm12.768-12.78L14.706 13.9a10 10 0 0 1-2.369-1.794zm-.469-.406-5.544 5.538a10 10 0 0 1-1.518-2.375z" clip-rule="evenodd"/>
</svg>
